!!!OTL-incipit: ES REITEN DREI REITER ZU MUENCHEN HINAUS
!!!ARE: Europa, Mitteleuropa, Deutschland, Bayern
!!!SCT: Z0077
!!!TXL: @@DE
!!!YEM: Copyright 1995, estate of Helmut Schaffrath.
**kern	**text
*ICvox	*
*M4/4	*
*met(c)	*
*k[b-]	*
*F:	*
!LO:TX:a:t=Bayern.	!
{8cc	Es
=1	=1
(8cc	rei-
8ff)	.
8ee	-ten
8dd	drei
(8cc	Rei-
8dd)	.
8ee	-ter
8ff	ʒu
=2	=2
4gg	München
8ff	.
8ee	hin-
4.ff}	-aus,
{8cc	ſie
=3	=3
8ccL	rei-
8ffJ	.
8ee	-ten
8dd	wohl
8ccL	vor
8ddJ	.
8ee	der
8ff	Ber-
=4	=4
4gg	-nau-
8ff	-rin
8ee	ihr
4.ff}	Haus
{8cc	Ber-
=5	=5
(8cc	-nau-
8ff)	.
4ff	-rin,
4ff	biſt
4ff	du
=6	=6
8ccL	drin-
8ggJ	.
4gg	-nen?
4r	.
4ee	ja
=7	=7
8eeL	drin-
8ffJ	.
4ff	-nen?
4r	.
8r}	.
==	==
!!!AGN: Sagen - Lied, Romanze, Tod
!!!ONB: ESAC (Essen Associative Code) Database: ZUCCAL
!!!AMT: simple quadruple
!!!AIN: vox
!!!EED: Helmut Schaffrath
!!!EEV: 1.0
!!!GTL: I. Ernste Romanzen und Sagen.
!!!URL-scan: https://www.digitale-sammlungen.de/de/view/bsb11160571?page=156
!!!ENC: Anna Maria Matuszewska
!!!EEV: 2025/01/24
*-	*-
